X: 15547
T: Glentrasna
R: reel
M: 4/4
K: Gmajor
“G”G3G GDGe|dBAG “C”E4-|E8-|
“A”G3G GDGB|degf “Bm”d4-|d8-|
“Em”dege “D”deBG|“C” AB “Bm” c/B/A/G/ “Am”E4-|E8|
“Em”G2DE GABe|“D”ed- d6-|d8|
|:“G”ABgf e2dB|cBAG “C”E4-|E8-|
“G”ABga edde|gd “Bm”(3edB d4-|d8-|
“Em”g2fg “D”edBG|“C”cd (3BAG “Am”E4-|E8-|
“Em”G2DE GABe|“D”d8-|d8:|

